assets/icons/emote/kiss-filled.svg

<?xml version="1.0" encoding="UTF-8" standalone="no"?>
<svg
   viewBox="0 0 24 24"
   width="24"
   height="24"
   version="1.1"
   id="svg8"
   sodipodi:docname="kiss-filled.svg"
   inkscape:version="1.2 (1:1.2.1+202207142221+cd75a1ee6d)"
   xmlns:inkscape="http://www.inkscape.org/namespaces/inkscape"
   xmlns:sodipodi="http://sodipodi.sourceforge.net/DTD/sodipodi-0.dtd"
   xmlns="http://www.w3.org/2000/svg"
   xmlns:svg="http://www.w3.org/2000/svg"
   xmlns:rdf="http://www.w3.org/1999/02/22-rdf-syntax-ns#"
   xmlns:cc="http://creativecommons.org/ns#"
   xmlns:dc="http://purl.org/dc/elements/1.1/">
  <metadata
     id="metadata14">
    <rdf:RDF>
      <cc:Work
         rdf:about="">
        <dc:format>image/svg+xml</dc:format>
        <dc:type
           rdf:resource="http://purl.org/dc/dcmitype/StillImage" />
      </cc:Work>
    </rdf:RDF>
  </metadata>
  <defs
     id="defs12" />
  <sodipodi:namedview
     pagecolor="#ffffff"
     bordercolor="#666666"
     borderopacity="1"
     objecttolerance="10"
     gridtolerance="10"
     guidetolerance="10"
     inkscape:pageopacity="0"
     inkscape:pageshadow="2"
     inkscape:window-width="1920"
     inkscape:window-height="1016"
     id="namedview10"
     showgrid="true"
     inkscape:zoom="27.5"
     inkscape:cx="6.2545455"
     inkscape:cy="8.0909091"
     inkscape:window-x="0"
     inkscape:window-y="0"
     inkscape:window-maximized="1"
     inkscape:current-layer="svg8"
     inkscape:pagecheckerboard="0"
     inkscape:showpageshadow="2"
     inkscape:deskcolor="#d1d1d1">
    <inkscape:grid
       type="xygrid"
       id="grid1454" />
  </sodipodi:namedview>
  <path
     id="path993"
     style="fill:#808080;fill-opacity:1;fill-rule:evenodd;stroke:none;stroke-width:0.75;stroke-linecap:square;stroke-linejoin:round;stroke-opacity:1"
     d="M 11.953125 2.625 A 9.3749993 9.3749993 0 0 0 2.625 12 A 9.3749993 9.3749993 0 0 0 12 21.375 A 9.3749993 9.3749993 0 0 0 21.375 12 A 9.3749993 9.3749993 0 0 0 12 2.625 A 9.3749993 9.3749993 0 0 0 11.953125 2.625 z M 8.875 8.875 C 9.7937481 8.875 10.710938 9.1564868 10.710938 10.240234 C 7.5109435 9.4852359 7.688436 12.35062 6.9609375 10.515625 C 6.5609383 9.5068767 7.9575019 8.875 8.875 8.875 z M 15.048828 8.875 C 15.966326 8.875 17.177186 9.4506269 16.960938 10.515625 C 16.564688 12.46062 16.30093 9.3189863 13.210938 10.240234 C 13.210938 9.1564868 14.13008 8.875 15.048828 8.875 z M 10.865234 12.234375 C 11.333805 12.222947 11.72378 12.386953 12.044922 12.626953 C 12.367208 12.386953 12.792005 12.219515 13.261719 12.234375 C 13.98286 12.257232 14.294922 13.103797 14.294922 13.591797 C 14.294922 14.477513 14.837502 14.465109 15.4375 14.537109 C 14.712931 14.708538 14.311053 15.936402 14.314453 16.554688 C 14.320168 17.665541 13.250905 17.991275 12.009766 17.984375 C 10.769768 17.979804 9.7407706 17.697645 9.7441406 16.574219 C 9.7441406 16.107934 9.3384983 14.75583 8.5625 14.554688 C 9.3396407 14.448403 9.7226562 14.267454 9.7226562 13.570312 C 9.7226562 12.646885 10.326951 12.246945 10.865234 12.234375 z M 12.056641 14.517578 C 11.68764 14.509464 11.330198 14.606315 11.027344 14.832031 C 11.211344 14.925744 11.337891 15.014578 11.337891 15.142578 C 11.337891 15.45115 11.675053 15.690306 12.015625 15.691406 C 12.356196 15.69255 12.764586 15.45115 12.785156 15.142578 C 12.787442 15.014578 12.958058 14.923461 13.152344 14.832031 C 12.805487 14.638885 12.425639 14.525678 12.056641 14.517578 z " />
</svg>

<svg width="24" height="24" xmlns="http://www.w3.org/2000/svg"><path style="fill:gray;fill-opacity:1;stroke:none;stroke-width:.75;stroke-linecap:square;stroke-linejoin:round;stroke-opacity:1" d="M11.953 2.625A9.375 9.375 0 0 0 2.625 12 9.375 9.375 0 0 0 12 21.375 9.375 9.375 0 0 0 21.375 12 9.375 9.375 0 0 0 12 2.625a9.375 9.375 0 0 0-.047 0zm-3.078 6.25c.919 0 1.836.281 1.836 1.365-3.2-.755-3.023 2.11-3.75.276-.4-1.01.997-1.641 1.914-1.641zm6.174 0c.917 0 2.128.576 1.912 1.64-.396 1.946-.66-1.196-3.75-.275 0-1.084.92-1.365 1.838-1.365zm-4.184 3.36c.469-.012.859.152 1.18.392a1.95 1.95 0 0 1 1.217-.393c.72.023 1.033.87 1.033 1.358 0 .886.543.873 1.143.945-.725.172-1.127 1.4-1.124 2.018.006 1.11-1.063 1.436-2.304 1.43-1.24-.005-2.27-.287-2.266-1.41 0-.467-.406-1.82-1.181-2.02.777-.107 1.16-.288 1.16-.985 0-.923.604-1.323 1.142-1.336zm1.192 2.283a1.635 1.635 0 0 0-1.03.314c.184.094.31.183.31.31 0 .31.338.548.679.55.34 0 .749-.24.77-.55.001-.127.172-.219.366-.31a2.388 2.388 0 0 0-1.095-.314z"/></svg>
